rospo-icon-theme-classic-common/22x22/places/folder-red-mail-cloud.svg

<svg height="22" width="22" xmlns="http://www.w3.org/2000/svg"><rect height="12" opacity=".2" rx="1" width="20" x="1" y="8.5"/><path d="m1 16c0 .554.446 1 1 1h18c .554 0 1-.446 1-1v-11c0-.554-.446-1-1-1h-10v-1c0-.554-.446-1-1-1h-7c-.554 0-1 .446-1 1" fill="#bf4b4b"/><rect height="12" opacity=".2" rx="1" width="20" x="1" y="7.5"/><rect fill="#e4e4e4" height="8" rx="1" width="16" x="3" y="6"/><rect fill="#e25252" height="12" rx="1" width="20" x="1" y="8"/><path d="m2 2c-.554 0-1 .446-1 1v .5c0-.554.446-1 1-1h7c .554 0 1 .446 1 1v-.5c0-.554-.446-1-1-1zm8 2v .5h10c .554 0 1 .446 1 1v-.5c0-.554-.446-1-1-1z" fill="#fff" opacity=".1"/><path d="m10.733 11a2.6667 2.7273 0 0 0 -2.5233 1.853 2.1333 2.1818 0 0 0 -1.2096 1.965 2.1333 2.1818 0 0 0 2.1333 2.182 2.1333 2.1818 0 0 0 1.4176-.555 2.6667 2.7273 0 0 0  .182.01 2.6667 2.7273 0 0 0 1.127-.26 2.1333 2.1818 0 0 0 1.007.26 2.1333 2.1818 0 0 0 2.133-2.182 2.1333 2.1818 0 0 0 -2.134-2.182 2.1333 2.1818 0 0 0 -.004 0 2.6667 2.7273 0 0 0 -2.129-1.091z" fill="#4f1d1d"/></svg>

<svg xmlns="http://www.w3.org/2000/svg" width="22" height="22" version="1">
 <rect style="opacity:0.2" width="20" height="12" x="1" y="8.5" rx="1" ry="1"/>
 <path style="fill:#bf4b4b" d="M 1,16 C 1,16.554 1.446,17 2,17 H 20 C 20.554,17 21,16.554 21,16 V 5 C 21,4.446 20.554,4 20,4 H 10 V 3 C 10,2.446 9.554,2 9,2 H 2 C 1.446,2 1,2.446 1,3"/>
 <rect style="opacity:0.2" width="20" height="12" x="1" y="7.5" rx="1" ry="1"/>
 <rect style="fill:#dcdcdc" width="16" height="8" x="3" y="6" rx="1" ry="1"/>
 <rect style="fill:#e25252" width="20" height="12" x="1" y="8" rx="1" ry="1"/>
 <path style="opacity:0.1;fill:#ffffff" d="M 2,2 C 1.446,2 1,2.446 1,3 V 3.5 C 1,2.946 1.446,2.5 2,2.5 H 9 C 9.554,2.5 10,2.946 10,3.5 V 3 C 10,2.446 9.554,2 9,2 Z M 10,4 V 4.5 H 20 C 20.554,4.5 21,4.946 21,5.5 V 5 C 21,4.446 20.554,4 20,4 Z"/>
 <path style="fill:#4f1d1d" d="M 10.733,11 A 2.6667,2.7273 0 0 0 8.2097,12.853 2.1333,2.1818 0 0 0 7.0001,14.818 2.1333,2.1818 0 0 0 9.1334,17 2.1333,2.1818 0 0 0 10.551,16.445 2.6667,2.7273 0 0 0 10.733,16.455 2.6667,2.7273 0 0 0 11.86,16.195 2.1333,2.1818 0 0 0 12.867,16.455 2.1333,2.1818 0 0 0 15,14.273 2.1333,2.1818 0 0 0 12.866,12.091 2.1333,2.1818 0 0 0 12.862,12.091 2.6667,2.7273 0 0 0 10.733,11 Z"/>
</svg>
